X:1
T:Lamb of God
T:Lamb of God
T:From Mass of St. John Bosco - Take Away The Rest)
T:Nikko Oliver Villanueva
T:Kenthoy
T:Bugsayan 2019
T:Bugsayan 2019
C:Nikko Oliver Villanueva
Z:Kenthoy
Z:Bugsayan 2019
%%score [ 1 2 3 4 ]
L:1/8
Q:1/4=65
M:3/4
K:Bb
V:1 treble nm="Soprano" snm="S."
V:2 treble nm="Alto" snm="A."
V:3 treble-8 nm="Tenor" snm="T."
V:4 bass nm="Bass" snm="B."
V:1
 z6 | z6 | z6 | z6 | z6 | z6 | z6 | z6 | (F2 c2) B2 | F4 (GA) | BA B3 A | F2 F2 F2 | G6- | G4 F2 | %14
w: ||||||||Lamb~~~~ * of|God you ~|take a- way the|sins of the|world|* have|
 F2 B,2 C2 | C6 | B,C D3 D | ^FG A3 A | B2 A2 B2 | c6 | F6 | A6 | B6- | B6 |] %24
w: mer- cy on|us.|Lamb of God You|take a- way the|sins of the|world,|grant|us|peace||
V:2
 z6 | z6 | z6 | z6 | z6 | z6 | z6 | z6 | (F2 c2) B2 | F4 (GA) | BA B3 A | F2 F2 F2 | G6- | G4 F2 | %14
w: ||||||||Lamb~~~~ * of|God you ~|take a- way the|sins of the|world|* have|
 F2 B,2 C2 | C6 | B,B, B,3 B, | DD ^F3 F | =F2 F2 F2 | =E6 | B,6 | C6 | D6- | D6 |] %24
w: mer- cy on|us.|Lamb of God You|take a- way the|sins of the|world,|grant|us|peace||
V:3
 (F2 c2) B2 | F4 (GA) | BA B3 A | F2 F2 F2 | G6- | G4 F2 | F2 B,2 C2 | C6 | z6 | z6 | z6 | z6 | %12
w: Lamb~~~~ * of|God you ~|take a- way the|sins of the|world|* have|mer- cy on|us.|||||
 z6 | z6 | z6 | z6 | BA A3 G | AA d3 d | d2 d2 d2 | c6 | G6 | B6 | (c2 F2 B2 | [Fc]6) |] %24
w: ||||Lamb of God You|take a- way the|sins of the|world,|grant|us|peace * *||
V:4
 (F,2 C2) B,2 | F,4 (G,A,) | B,A, B,3 A, | F,2 F,2 F,2 | G,6- | G,4 F,2 | F,2 B,,2 C,2 | C,6 | z6 | %9
w: Lamb~~~~ * of|God you ~|take a- way the|sins of the|world|* have|mer- cy on|us.||
 z6 | z6 | z6 | z6 | z6 | z6 | z6 | B,A, G,3 G, | ^F,F, F,3 F, | =F,2 F,2 F,2 | [C,G,]6 | [E,G,]6 | %21
w: |||||||Lamb of God You|take a- way the|sins of the|world,|grant|
 F,6 | B,,6- | B,,6 |] %24
w: us|peace||

